X: 3
T: The Murray River Jig
C: Graham Townsend
M: 6/8
L: 1/8
R: jig
K: A Major
|: AB |
c2 c cBA | E3 EAB | c2 c dcB | F3 FBc | 
d2 d dcB | g2 g g2 f |[1 fee e^de | fed c :|[2 e2 e dcB | A3 A2 ||
|: d |
cAA AB=c  | B=GG G2 F | EAA AGA | Bee e2 d |
c2 A A2 =c | B2 =G G2 F | E2 A GG/A/B |[1 cAA A2 :|[2 cAA A- ||
